public/icons/phone-top.svg

<svg width="390" height="47" viewBox="0 0 390 47" fill="none" xmlns="http://www.w3.org/2000/svg">
<path fill-rule="evenodd" clip-rule="evenodd" d="M84 0H90V6C90 2.68629 87.3137 0 84 0Z" fill="black"/>
<path d="M90 0H300V11C300 22.598 290.598 32 279 32H111C99.402 32 90 22.598 90 11V0Z" fill="black"/>
<path fill-rule="evenodd" clip-rule="evenodd" d="M306 0H300V6C300 2.68629 302.686 0 306 0Z" fill="black"/>
<path fill-rule="evenodd" clip-rule="evenodd" d="M325 20.6666H324C323.448 20.6666 323 21.1143 323 21.6666V30.3333C323 30.8856 323.448 31.3333 324 31.3333H325C325.552 31.3333 326 30.8856 326 30.3333V21.6666C326 21.1143 325.552 20.6666 325 20.6666ZM319.333 22.9999H320.333C320.885 22.9999 321.333 23.4476 321.333 23.9999V30.3333C321.333 30.8855 320.885 31.3333 320.333 31.3333H319.333C318.781 31.3333 318.333 30.8855 318.333 30.3333V23.9999C318.333 23.4476 318.781 22.9999 319.333 22.9999ZM315.667 25.3334H314.667C314.114 25.3334 313.667 25.7811 313.667 26.3334V30.3334C313.667 30.8857 314.114 31.3334 314.667 31.3334H315.667C316.219 31.3334 316.667 30.8857 316.667 30.3334V26.3334C316.667 25.7811 316.219 25.3334 315.667 25.3334ZM311 27.3334H310C309.448 27.3334 309 27.7811 309 28.3334V30.3334C309 30.8857 309.448 31.3334 310 31.3334H311C311.552 31.3334 312 30.8857 312 30.3334V28.3334C312 27.7811 311.552 27.3334 311 27.3334Z" fill="black"/>
<path fill-rule="evenodd" clip-rule="evenodd" d="M338.637 22.7946C340.852 22.7947 342.984 23.6461 344.59 25.1729C344.711 25.2908 344.904 25.2893 345.023 25.1696L346.179 24.0029C346.239 23.9422 346.273 23.86 346.272 23.7744C346.272 23.6888 346.237 23.6069 346.176 23.5469C341.961 19.5074 335.311 19.5074 331.096 23.5469C331.035 23.6069 331.001 23.6887 331 23.7743C330.999 23.8599 331.033 23.9422 331.093 24.0029L332.25 25.1696C332.369 25.2895 332.562 25.291 332.683 25.1729C334.289 23.646 336.42 22.7946 338.637 22.7946ZM338.637 26.5902C339.854 26.5901 341.028 27.0426 341.931 27.8598C342.053 27.9758 342.245 27.9733 342.364 27.8542L343.519 26.6875C343.579 26.6263 343.613 26.5433 343.612 26.457C343.611 26.3708 343.576 26.2884 343.514 26.2285C340.766 23.6721 336.51 23.6721 333.762 26.2285C333.7 26.2884 333.664 26.3708 333.663 26.4571C333.663 26.5434 333.696 26.6264 333.757 26.6875L334.912 27.8542C335.031 27.9733 335.223 27.9758 335.345 27.8598C336.247 27.0432 337.42 26.5907 338.637 26.5902ZM340.95 29.144C340.952 29.2305 340.917 29.3139 340.856 29.3745L338.858 31.3901C338.8 31.4494 338.72 31.4827 338.637 31.4827C338.553 31.4827 338.474 31.4494 338.415 31.3901L336.417 29.3745C336.356 29.3138 336.322 29.2304 336.324 29.1439C336.325 29.0574 336.363 28.9755 336.427 28.9175C337.703 27.8386 339.571 27.8386 340.846 28.9175C340.911 28.9755 340.948 29.0574 340.95 29.144Z" fill="black"/>
<path opacity="0.4" fill-rule="evenodd" clip-rule="evenodd" d="M353.939 21.3333H370.606C371.526 21.3333 372.272 22.0795 372.272 23V29C372.272 29.9205 371.526 30.6667 370.606 30.6667H353.939C353.019 30.6667 352.272 29.9205 352.272 29V23C352.272 22.0795 353.019 21.3333 353.939 21.3333ZM351.272 23C351.272 21.5272 352.466 20.3333 353.939 20.3333H370.606C372.079 20.3333 373.272 21.5273 373.272 23V29C373.272 30.4728 372.079 31.6667 370.606 31.6667H353.939C352.466 31.6667 351.272 30.4728 351.272 29V23ZM375.6 26.0001C375.6 26.8732 375.077 27.6613 374.272 28.0001V24.0001C375.077 24.3388 375.6 25.1269 375.6 26.0001Z" fill="black"/>
<rect x="353.272" y="22.3333" width="18" height="7.33333" rx="1.33333" fill="black"/>
<path d="M35.6641 22C33.5244 22 32 23.4629 32 25.4658V25.4795C32 27.3525 33.3262 28.7334 35.2197 28.7334C36.5732 28.7334 37.4346 28.043 37.7969 27.2637H37.9336C37.9336 27.3389 37.9268 27.4141 37.9268 27.4893C37.8516 29.376 37.1885 30.9072 35.623 30.9072C34.7549 30.9072 34.1465 30.4561 33.8867 29.7656L33.8662 29.6973H32.1299L32.1436 29.7725C32.458 31.2832 33.8115 32.3564 35.623 32.3564C38.1045 32.3564 39.6016 30.3877 39.6016 27.0654V27.0518C39.6016 23.4971 37.7695 22 35.6641 22ZM35.6572 27.3799C34.5361 27.3799 33.7227 26.5596 33.7227 25.418V25.4043C33.7227 24.3037 34.5908 23.4355 35.6777 23.4355C36.7715 23.4355 37.626 24.3174 37.626 25.4453V25.459C37.626 26.5732 36.7715 27.3799 35.6572 27.3799Z" fill="black"/>
<path d="M42.4251 25.7187C43.054 25.7187 43.512 25.2402 43.512 24.6387C43.512 24.0303 43.054 23.5586 42.4251 23.5586C41.803 23.5586 41.3382 24.0303 41.3382 24.6387C41.3382 25.2402 41.803 25.7187 42.4251 25.7187ZM42.4251 30.791C43.054 30.791 43.512 30.3193 43.512 29.7109C43.512 29.1025 43.054 28.6309 42.4251 28.6309C41.803 28.6309 41.3382 29.1025 41.3382 29.7109C41.3382 30.3193 41.803 30.791 42.4251 30.791Z" fill="black"/>
<path d="M50.0337 32.1104H51.7222V30.2168H53.0484V28.7607H51.7222V22.2461H49.2271C47.8873 24.2832 46.4859 26.5527 45.2076 28.7744V30.2168H50.0337V32.1104ZM46.8482 28.8018V28.6992C47.8052 27.0244 48.9468 25.1992 49.9586 23.6543H50.0611V28.8018H46.8482Z" fill="black"/>
<path d="M56.8563 32.1104H58.62V22.2461H56.8631L54.286 24.0576V25.7187L56.7401 23.9824H56.8563V32.1104Z" fill="black"/>
</svg>

<svg width="390" height="47" fill="none" xmlns="http://www.w3.org/2000/svg"><path fill-rule="evenodd" clip-rule="evenodd" d="M84 0h6v6a6 6 0 0 0-6-6Z" fill="#000"/><path d="M90 0h210v11c0 11.598-9.402 21-21 21H111c-11.598 0-21-9.402-21-21V0Z" fill="#000"/><path fill-rule="evenodd" clip-rule="evenodd" d="M306 0h-6v6a6 6 0 0 1 6-6ZM325 20.667h-1a1 1 0 0 0-1 1v8.666a1 1 0 0 0 1 1h1a1 1 0 0 0 1-1v-8.666a1 1 0 0 0-1-1ZM319.333 23h1a1 1 0 0 1 1 1v6.333a1 1 0 0 1-1 1h-1a1 1 0 0 1-1-1V24a1 1 0 0 1 1-1Zm-3.666 2.333h-1a1 1 0 0 0-1 1v4a1 1 0 0 0 1 1h1a1 1 0 0 0 1-1v-4a1 1 0 0 0-1-1Zm-4.667 2h-1a1 1 0 0 0-1 1v2a1 1 0 0 0 1 1h1a1 1 0 0 0 1-1v-2a1 1 0 0 0-1-1ZM338.637 22.795c2.215 0 4.347.851 5.953 2.378a.308.308 0 0 0 .433-.003l1.156-1.167a.32.32 0 0 0-.003-.456 10.897 10.897 0 0 0-15.08 0 .324.324 0 0 0-.003.456l1.157 1.167c.119.12.312.121.433.003a8.64 8.64 0 0 1 5.954-2.378Zm0 3.795c1.217 0 2.391.453 3.294 1.27a.31.31 0 0 0 .433-.006l1.155-1.166a.325.325 0 0 0-.005-.46 7.159 7.159 0 0 0-9.752 0 .324.324 0 0 0-.005.46l1.155 1.166a.31.31 0 0 0 .433.006 4.908 4.908 0 0 1 3.292-1.27Zm2.313 2.554a.316.316 0 0 1-.094.23l-1.998 2.016a.31.31 0 0 1-.443 0l-1.998-2.015a.315.315 0 0 1 .01-.457 3.421 3.421 0 0 1 4.419 0c.065.058.102.14.104.226Z" fill="#000"/><path opacity=".4" fill-rule="evenodd" clip-rule="evenodd" d="M353.939 21.333h16.667c.92 0 1.666.747 1.666 1.667v6c0 .92-.746 1.667-1.666 1.667h-16.667c-.92 0-1.667-.747-1.667-1.667v-6c0-.92.747-1.667 1.667-1.667ZM351.272 23a2.667 2.667 0 0 1 2.667-2.667h16.667A2.666 2.666 0 0 1 373.272 23v6a2.666 2.666 0 0 1-2.666 2.667h-16.667A2.667 2.667 0 0 1 351.272 29v-6Zm24.328 3a2.17 2.17 0 0 1-1.328 2v-4a2.17 2.17 0 0 1 1.328 2Z" fill="#000"/><rect x="353.272" y="22.333" width="18" height="7.333" rx="1.333" fill="#000"/><path d="M35.664 22C33.524 22 32 23.463 32 25.466v.014c0 1.872 1.326 3.253 3.22 3.253 1.353 0 2.215-.69 2.577-1.47h.137c0 .076-.007.151-.007.226-.075 1.887-.739 3.418-2.304 3.418-.868 0-1.476-.45-1.736-1.141l-.02-.069H32.13l.014.076c.314 1.51 1.668 2.583 3.479 2.583 2.482 0 3.979-1.968 3.979-5.29v-.014c0-3.555-1.832-5.052-3.938-5.052Zm-.007 5.38c-1.12 0-1.934-.82-1.934-1.962v-.014c0-1.1.868-1.968 1.955-1.968 1.094 0 1.948.881 1.948 2.01v.013c0 1.114-.854 1.92-1.969 1.92ZM42.425 25.719c.629 0 1.087-.479 1.087-1.08 0-.609-.458-1.08-1.087-1.08-.622 0-1.087.471-1.087 1.08 0 .601.465 1.08 1.087 1.08Zm0 5.072c.629 0 1.087-.472 1.087-1.08 0-.608-.458-1.08-1.087-1.08-.622 0-1.087.471-1.087 1.08 0 .608.465 1.08 1.087 1.08ZM50.034 32.11h1.688v-1.893h1.326V28.76h-1.326v-6.515h-2.495a131.36 131.36 0 0 0-4.02 6.528v1.443h4.827v1.893Zm-3.186-3.308v-.103c.957-1.675 2.099-3.5 3.11-5.045h.103v5.148h-3.213ZM56.856 32.11h1.764v-9.864h-1.757l-2.577 1.812v1.66l2.454-1.736h.116v8.128Z" fill="#000"/></svg>
